src/assets/filled/TrushSquare.svg

<?xml version="1.0" encoding="UTF-8"?>
<svg width="24" height="24" viewBox="0 0 24 24" xmlns="http://www.w3.org/2000/svg">
 <path d="m16.19 2h-8.38c-3.64 0-5.81 2.17-5.81 5.81v8.37c0 3.65 2.17 5.82 5.81 5.82h8.37c3.64 0 5.81-2.17 5.81-5.81v-8.38c0.01-3.64-2.16-5.81-5.8-5.81zm-0.43 13.76c-0.06 0.85-0.13 1.91-2.05 1.91h-3.42c-1.91 0-1.99-1.06-2.05-1.91l-0.31-3.96c-0.02-0.26 0.07-0.51 0.24-0.7s0.42-0.29 0.67-0.29h6.32c0.25 0 0.5 0.11 0.67 0.29 0.17 0.19 0.26 0.44 0.24 0.69l-0.31 3.97zm1.04-5.94h-0.06c-1.04-0.1-1.99-0.17-2.9-0.21-1.22-0.06-2.44-0.08-3.67-0.03-0.6 0.03-1.21 0.07-1.81 0.13l-1.09 0.11h-0.07c-0.35 0-0.65-0.26-0.68-0.62-0.04-0.37 0.24-0.71 0.61-0.74l1.09-0.11c0.43-0.04 0.85-0.07 1.28-0.09l0.08-0.47c0.08-0.5 0.23-1.46 1.73-1.46h1.39c1.51 0 1.66 0.99 1.73 1.47l0.08 0.48c0.75 0.04 1.52 0.1 2.36 0.18 0.38 0.04 0.65 0.37 0.62 0.75-0.04 0.35-0.34 0.61-0.69 0.61z"/>
</svg>

<svg width="24" height="24" viewBox="0 0 24 24"  xmlns="http://www.w3.org/2000/svg">
<path d="M16.19 2H7.81C4.17 2 2 4.17 2 7.81V16.18C2 19.83 4.17 22 7.81 22H16.18C19.82 22 21.99 19.83 21.99 16.19V7.81C22 4.17 19.83 2 16.19 2ZM15.76 15.76C15.7 16.61 15.63 17.67 13.71 17.67H10.29C8.38 17.67 8.3 16.61 8.24 15.76L7.93 11.8C7.91 11.54 8 11.29 8.17 11.1C8.34 10.91 8.59 10.81 8.84 10.81H15.16C15.41 10.81 15.66 10.92 15.83 11.1C16 11.29 16.09 11.54 16.07 11.79L15.76 15.76ZM16.8 9.82C16.78 9.82 16.76 9.82 16.74 9.82C15.7 9.72 14.75 9.65 13.84 9.61C12.62 9.55 11.4 9.53 10.17 9.58C9.57 9.61 8.96 9.65 8.36 9.71L7.27 9.82C7.25 9.82 7.22 9.82 7.2 9.82C6.85 9.82 6.55 9.56 6.52 9.2C6.48 8.83 6.76 8.49 7.13 8.46L8.22 8.35C8.65 8.31 9.07 8.28 9.5 8.26L9.58 7.79C9.66 7.29 9.81 6.33 11.31 6.33H12.7C14.21 6.33 14.36 7.32 14.43 7.8L14.51 8.28C15.26 8.32 16.03 8.38 16.87 8.46C17.25 8.5 17.52 8.83 17.49 9.21C17.45 9.56 17.15 9.82 16.8 9.82Z" />
</svg>
